Breeze Round Dark/actions/24/labplot-zoom-out-y.svg

<svg xmlns="http://www.w3.org/2000/svg" viewBox="0 0 24 24" width="24" height="24">
  <defs id="defs3051">
    <style type="text/css" id="current-color-scheme">.ColorScheme-Text {color:#fcfcfc;}</style>
  </defs>
  <g transform="translate(1,1)">
    <path style="fill:currentColor;fill-opacity:1;stroke:none" d="M 3,3 V 5 H 4 V 4 H 5 V 3 Z M 7,3 V 4 H 8 V 5 H 9 V 3 Z m 5,0 v 1 h 5 c 0,0 1,0 1,1 0,1 0,5 0,5 h 1 C 19,10 19,7 19,5 19,3 17,3 17,3 Z M 3,7 V 9 H 5 V 8 H 4 V 7 Z M 8,7 V 8 H 7 V 9 H 9 V 7 Z m -5,5 c 0,0 0,3 0,5 0,2 2,2 2,2 h 5 V 18 H 5 c 0,0 -1,0 -1,-1 0,-1 0,-5 0,-5 z m 11.998047,0.429688 v 4.65625 l -1.621094,-1.621094 -0.707031,0.707031 2.121094,2.121094 L 15.498047,19 l 2.830078,-2.828125 -0.707031,-0.707031 -1.623047,1.621094 v -4.65625 z" class="ColorScheme-Text"/>
  </g>
</svg>

<svg xmlns="http://www.w3.org/2000/svg" viewBox="0 0 24 24">
  <defs id="defs3051">
    <style type="text/css" id="current-color-scheme">
      .ColorScheme-Text {
        color:#eff0f1;
      }
      </style>
  </defs><g transform="translate(1,1)">
 <path 
     style="fill:currentColor;fill-opacity:1;stroke:none" 
     d="M 3 3 L 3 5 L 4 5 L 4 4 L 5 4 L 5 3 L 3 3 z M 7 3 L 7 4 L 8 4 L 8 5 L 9 5 L 9 3 L 7 3 z M 12 3 L 12 4 L 18 4 L 18 10 L 19 10 L 19 4 L 19 3 L 12 3 z M 3 7 L 3 9 L 5 9 L 5 8 L 4 8 L 4 7 L 3 7 z M 8 7 L 8 8 L 7 8 L 7 9 L 9 9 L 9 7 L 8 7 z M 3 12 L 3 19 L 4 19 L 10 19 L 10 18 L 4 18 L 4 12 L 3 12 z M 14.998047 12.429688 L 14.998047 17.085938 L 13.376953 15.464844 L 12.669922 16.171875 L 14.791016 18.292969 L 15.498047 19 L 18.328125 16.171875 L 17.621094 15.464844 L 15.998047 17.085938 L 15.998047 12.429688 L 14.998047 12.429688 z "
     class="ColorScheme-Text"
     />
</g></svg>
